symbols/web/backup/materialsymbolsoutlined/backup_wght500gradN25_20px.svg

<svg xmlns="http://www.w3.org/2000/svg" height="20" width="20"><path d="M5.521 16.646q-1.938 0-3.281-1.354Q.896 13.938.896 12.021q0-1.625.958-2.875t2.542-1.604Q4.938 5.667 6.49 4.51 8.042 3.354 10 3.354q2.396 0 4.094 1.636 1.698 1.635 1.76 3.968v.063q1.396.167 2.323 1.271.927 1.104.927 2.541 0 1.563-1.135 2.688-1.136 1.125-2.698 1.125h-4.25q-.792 0-1.333-.552-.542-.552-.542-1.323v-3.896l-1.354 1.354-1.188-1.187L10 7.646l3.396 3.396-1.188 1.187-1.354-1.354v3.896h4.438q.812 0 1.375-.563.562-.562.562-1.396 0-.812-.562-1.374-.563-.563-1.375-.563H14V9.188q0-1.646-1.177-2.803Q11.646 5.229 10 5.229q-1.667 0-2.823 1.188-1.156 1.187-1.156 2.854h-.479q-1.167 0-1.969.791-.802.792-.802 1.959 0 1.146.802 1.948t1.948.802H7.5v1.875ZM10 10.938Z"/></svg>

<svg xmlns="http://www.w3.org/2000/svg" height="20" width="20"><path d="M5.521 16.646Q3.583 16.646 2.24 15.292Q0.896 13.938 0.896 12.021Q0.896 10.396 1.854 9.146Q2.812 7.896 4.396 7.542Q4.938 5.667 6.49 4.51Q8.042 3.354 10 3.354Q12.396 3.354 14.094 4.99Q15.792 6.625 15.854 8.958V9.021Q17.25 9.188 18.177 10.292Q19.104 11.396 19.104 12.833Q19.104 14.396 17.969 15.521Q16.833 16.646 15.271 16.646H11.021Q10.229 16.646 9.688 16.094Q9.146 15.542 9.146 14.771V10.875L7.792 12.229L6.604 11.042L10 7.646L13.396 11.042L12.208 12.229L10.854 10.875V14.771Q10.854 14.771 10.854 14.771Q10.854 14.771 10.854 14.771H15.292Q16.104 14.771 16.667 14.208Q17.229 13.646 17.229 12.812Q17.229 12 16.667 11.438Q16.104 10.875 15.292 10.875H14V9.188Q14 7.542 12.823 6.385Q11.646 5.229 10 5.229Q8.333 5.229 7.177 6.417Q6.021 7.604 6.021 9.271H5.542Q4.375 9.271 3.573 10.062Q2.771 10.854 2.771 12.021Q2.771 13.167 3.573 13.969Q4.375 14.771 5.521 14.771H7.5V16.646ZM10 10.938Q10 10.938 10 10.938Q10 10.938 10 10.938Q10 10.938 10 10.938Q10 10.938 10 10.938Q10 10.938 10 10.938Q10 10.938 10 10.938Q10 10.938 10 10.938Q10 10.938 10 10.938Q10 10.938 10 10.938Q10 10.938 10 10.938Q10 10.938 10 10.938Q10 10.938 10 10.938Q10 10.938 10 10.938Q10 10.938 10 10.938Q10 10.938 10 10.938Q10 10.938 10 10.938Q10 10.938 10 10.938Q10 10.938 10 10.938Z"/></svg>
